raw/symbols/avax.svg

<svg width="42" height="42" viewBox="0 0 42 42" fill="none" xmlns="http://www.w3.org/2000/svg">
<circle cx="21.0002" cy="20.9999" r="18.6667" fill="#F3F3F3"/>
<path fill-rule="evenodd" clip-rule="evenodd" d="M42 21C42 32.5981 32.5981 42 21 42C9.40201 42 0 32.5981 0 21C0 9.40201 9.40201 0 21 0C32.5981 0 42 9.40201 42 21ZM15.0492 29.3569H10.9737C10.1173 29.3569 9.69428 29.3569 9.43635 29.192C9.15776 29.0113 8.98752 28.7121 8.96689 28.3819C8.9514 28.0776 9.16293 27.7061 9.58595 26.9632L19.6489 9.22588C20.0771 8.47267 20.2937 8.09607 20.5672 7.95679C20.8612 7.80719 21.212 7.80719 21.5061 7.95679C21.7795 8.09607 21.9962 8.47267 22.4244 9.22588L24.4931 12.8371L24.5036 12.8555C24.9661 13.6636 25.2006 14.0733 25.303 14.5034C25.4165 14.9729 25.4165 15.4681 25.303 15.9376C25.1999 16.3709 24.9677 16.7836 24.4982 17.6039L19.2124 26.9477L19.1988 26.9717C18.7332 27.7864 18.4973 28.1993 18.1703 28.5108C17.8144 28.8514 17.3862 29.0988 16.9167 29.2384C16.4885 29.3569 16.0088 29.3569 15.0492 29.3569ZM25.3412 29.3569H31.1809C32.0425 29.3569 32.4759 29.3569 32.734 29.1869C33.0125 29.0063 33.1878 28.7018 33.2035 28.3718C33.2183 28.0774 33.0114 27.7203 32.6059 27.0206C32.5919 26.9967 32.578 26.9725 32.5637 26.9478L29.6385 21.9437L29.6052 21.8874C29.1942 21.1923 28.9867 20.8413 28.7202 20.7056C28.4263 20.556 28.0804 20.556 27.7865 20.7056C27.5182 20.8449 27.3016 21.2112 26.8734 21.9489L23.9586 26.953L23.9486 26.9702C23.522 27.7068 23.3087 28.0748 23.3241 28.3768C23.3447 28.7071 23.515 29.0113 23.7935 29.192C24.0463 29.3569 24.4797 29.3569 25.3412 29.3569Z" fill="#D54F49"/>
</svg>

<svg xmlns="http://www.w3.org/2000/svg" width="42" height="42" fill="none"><circle cx="21" cy="21" r="18.667" fill="#F3F3F3"/><path fill="#D54F49" fill-rule="evenodd" d="M42 21c0 11.598-9.402 21-21 21S0 32.598 0 21 9.402 0 21 0s21 9.402 21 21Zm-26.95 8.357h-4.076c-.857 0-1.28 0-1.538-.165a1.036 1.036 0 0 1-.47-.81c-.015-.304.197-.676.62-1.419L19.649 9.226c.428-.753.645-1.13.918-1.27.294-.149.645-.149.94 0 .272.14.49.517.917 1.27l2.07 3.611.01.018c.462.809.697 1.218.799 1.648.113.47.113.965 0 1.435-.103.433-.335.846-.805 1.666l-5.286 9.344-.013.024c-.466.814-.702 1.227-1.029 1.539-.356.34-.784.588-1.253.727-.429.119-.908.119-1.868.119Zm10.291 0h5.84c.861 0 1.295 0 1.553-.17.279-.18.454-.485.47-.815.014-.295-.193-.652-.598-1.351l-.042-.073-2.925-5.004-.034-.057c-.41-.695-.618-1.046-.885-1.181-.294-.15-.64-.15-.933 0-.269.139-.485.505-.914 1.243l-2.914 5.004-.01.017c-.427.737-.64 1.105-.625 1.407.02.33.191.634.47.815.252.165.686.165 1.547.165Z" clip-rule="evenodd"/></svg>
